!!!COM: Palestrina, Giovanni Perluigi da
!!!OPR: Missa Tu es Petrus (1887)
!!!OTL: Agnus I
**kern	**kern	**kern	**kern	**kern	**kern
*Ibass	*Ibarit	*Itenor	*Icalto	*Icant	*Icant
!Bassus	!Baritone	!Tenor	!Altus	!Cantus 2	!Cantus 1
*clefF4	*clefF4	*clefGv2	*clefG2	*clefG2	*clefG2
*k[]	*k[]	*k[]	*k[]	*k[]	*k[]
*G:mix	*G:mix	*G:mix	*G:mix	*G:mix	*G:mix
*M4/2	*M4/2	*M4/2	*M4/2	*M4/2	*M4/2
=1	=1	=1	=1	=1	=1
1.G	1.B	0d	0r	0r	0r
4F#	4A	.	.	.	.
4E	4G	.	.	.	.
=2	=2	=2	=2	=2	=2
2F#	2A	1d	0r	0r	0r
2G	2B	.	.	.	.
4C	1c	1e	.	.	.
4D	.	.	.	.	.
4E	.	.	.	.	.
4F	.	.	.	.	.
=3	=3	=3	=3	=3	=3
2.G	1B	0d	1.g	1.b	0dd
8F	.	.	.	.	.
8E	.	.	.	.	.
[1D	1r	.	.	.	.
.	.	.	4f#	4a	.
.	.	.	4e	4g	.
=4	=4	=4	=4	=4	=4
2D]	0r	1r	2f#	2a	1dd
2G	.	.	1g	2b	.
1C	.	[1g	.	1cc	1ee
.	.	.	2c	.	.
=5	=5	=5	=5	=5	=5
0r	0r	2g]	1.d	2.a	1dd
.	.	4f#	.	.	.
.	.	4e	.	4g	.
.	.	2f#	.	2a	[1dd
.	.	[2g	2G	[2b	.
=6	=6	=6	=6	=6	=6
0r	0r	2g]	1g	2b]	2dd]
.	.	2e	.	2cc	2ee
.	.	4d	2.a	1dd	1ff
.	.	4e	.	.	.
.	.	4f	.	.	.
.	.	4g	4b	.	.
=7	=7	=7	=7	=7	=7
0r	0r	1a	1.cc	2r	1.ee
.	.	.	.	2a	.
.	.	2A	.	2cc	.
.	.	2B	2b	2dd	2dd
=8	=8	=8	=8	=8	=8
0r	0r	1c	4a	1ee	2.cc
.	.	.	4g	.	.
.	.	.	1g	.	.
.	.	.	.	.	4b
.	.	1d	.	1dd	1a
.	.	.	2f#	.	.
=9	=9	=9	=9	=9	=9
0r	2r	2e	1g	2b	1g
.	1c	1e	.	4cc	.
.	.	.	.	4dd	.
.	.	.	[1g	4ee	1r
.	.	.	.	4cc	.
.	4B	4d	.	[2dd	.
.	4A	4c	.	.	.
=10	=10	=10	=10	=10	=10
1r	2B	2d	2g]	2dd]	0r
.	2c	2e	2g	2cc	.
2r	1F	2.f	1a	1cc	.
[2c	.	.	.	.	.
.	.	4e	.	.	.
=11	=11	=11	=11	=11	=11
2c]	1.G	1.d	1g	0r	2r
4B	.	.	.	.	1dd
4A	.	.	.	.	.
2B	.	.	[1g	.	.
[2c	2C	2c	.	.	2ee
=12	=12	=12	=12	=12	=12
4c]	1c	2e	2g]	0r	2.cc
4B	.	.	.	.	.
2A	.	2f	2a	.	.
.	.	.	.	.	8b
.	.	.	.	.	8a
1G	2r	1g	1b	.	2.dd
.	[2d	.	.	.	.
.	.	.	.	.	4ee
=13	=13	=13	=13	=13	=13
1.A	2d]	2r	1.a	0r	2ff
.	4c	1e	.	.	4ee
.	4B	.	.	.	4dd
.	2c	.	.	.	1ee
2E	2B	2e	2g	.	.
=14	=14	=14	=14	=14	=14
1F	2A	1a	2.f	0r	2dd
.	1c	.	.	.	2cc
.	.	.	4e	.	.
1G	.	[1g	1d	.	1gg
.	2B	.	.	.	.
=15	=15	=15	=15	=15	=15
1C	1c	2g]	2e	2r	1ee
.	.	2c	2g	2cc	.
1r	1r	1f	1a	1cc	2r
.	.	.	.	.	2cc
=16	=16	=16	=16	=16	=16
0r	0r	2f	2f	2cc	2a
.	.	2e	2c	2cc	2g
.	.	1d	1f	1dd	2a
.	.	.	.	.	2b
=17	=17	=17	=17	=17	=17
0r	0r	1c	2g	1ee	2.cc
.	.	.	2.g	.	.
.	.	.	.	.	4b
.	.	2.d	.	1dd	4a
.	.	.	4f	.	4g
.	.	.	2f	.	[2a
.	.	4c	.	.	.
=18	=18	=18	=18	=18	=18
1G	0r	2B	2d	2dd	4a]
.	.	.	.	.	4g
.	.	4A	1e	4cc	1g
.	.	4G	.	4b	.
1c	.	1A	.	1cc	.
.	.	.	4d	.	2f#
.	.	.	4c	.	.
=19	=19	=19	=19	=19	=19
2c	2r	2G	1d	2r	1g
2B	2G	1g	.	2dd	.
1A	1c	.	1r	2ee	1r
.	.	2f	.	2ff	.
=20	=20	=20	=20	=20	=20
1G	2c	2e	2r	1gg	0r
.	2B	2d	2g	.	.
2.A	2A	1c	4f	[1cc	.
.	.	.	4e	.	.
.	4F	.	[2a	.	.
4G	4G	.	.	.	.
=21	=21	=21	=21	=21	=21
2F	4A	1c	2a]	1cc]	2r
.	4B	.	.	.	.
2E	1c	.	2g	.	2cc
1D	.	1d	2.f	1r	1ff
.	2B	.	.	.	.
.	.	.	8e	.	.
.	.	.	8d	.	.
=22	=22	=22	=22	=22	=22
1C	1c	1G	2.g	2r	2ff
.	.	.	.	2cc	2ee
.	.	.	4e	.	.
1r	1d	1r	4f	1ff	1dd
.	.	.	4g	.	.
.	.	.	[2a	.	.
=23	=23	=23	=23	=23	=23
0r	2A	1r	2a]	2ff	2cc
.	2c	.	4g	2ee	2.cc
.	.	.	4f	.	.
.	1G	2r	1g	1dd	.
.	.	.	.	.	4b
.	.	2d	.	.	2b
=24	=24	=24	=24	=24	=24
0r	1A	2f	2r	1cc	1.a
.	.	2e	2e	.	.
.	1D	1d	2f	2.dd	.
.	.	.	[2a	.	[2dd
.	.	.	.	4cc	.
=25	=25	=25	=25	=25	=25
1r	0r	1e	4a]	2b	4dd]
.	.	.	4g	.	4cc
.	.	.	1g	4a	2cc
.	.	.	.	4g	.
1D	.	1d	.	1a	[1dd
.	.	.	2f#	.	.
=26	=26	=26	=26	=26	=26
1G	0r	2.d	1g	2b	2dd]
.	.	.	.	2dd	2b
.	.	4c	.	.	.
2G	.	2B	1d	2g	1dd
2F	.	2A	.	2a	.
=27	=27	=27	=27	=27	=27
2E	2r	1G	1g	1b	1ee
2E	2G	.	.	.	.
1A	1c	2r	2g	1cc	1r
.	.	2c	2f	.	.
=28	=28	=28	=28	=28	=28
1G	2c	1g	2e	0r	2r
.	2B	.	2d	.	2g
1r	1A	2g	2e	.	1cc
.	.	2f	2c	.	.
=29	=29	=29	=29	=29	=29
1r	1G	2e	2.g	2r	2cc
.	.	2d	.	2g	2b
.	.	.	4f	.	.
2r	2.A	2.c	[1e	1cc	4a
.	.	.	.	.	4b
2A	.	.	.	.	4cc
.	4B	4B	.	.	4dd
=30	=30	=30	=30	=30	=30
2A	4c	2A	1e]	2cc	4ee
.	4d	.	.	.	4ff
2E	2e	2G	.	2b	2gg
1F	2c	1A	2r	4a	2.ff
.	.	.	.	4b	.
.	2A	.	2c	4cc	.
.	.	.	.	4a	4ee
=31	=31	=31	=31	=31	=31
0G	2d	1r	2g	2b	2dd
.	2e	.	2g	2cc	1cc
.	1d	2r	1g	1dd	.
.	.	[2g	.	.	2b
=32	=32	=32	=32	=32	=32
2r	1c	2g]	1e	2ee	0cc
1c	.	2g	.	1ee	.
.	1r	1g	2r	.	.
2c	.	.	[2g	2ee	.
=33	=33	=33	=33	=33	=33
1c	0r	1e	2g]	1cc	0r
.	.	.	2g	.	.
2B	.	2d	2g	2dd	.
[2c	.	4c	2e	[2ee	.
.	.	4d	.	.	.
=34	=34	=34	=34	=34	=34
2c]	0r	4e	1g	2ee]	0r
.	.	4f	.	.	.
2B	.	4g	.	2.dd	.
.	.	8f	.	.	.
.	.	8g	.	.	.
2.A	.	[1a	2f	.	.
.	.	.	.	4cc	.
.	.	.	[2e	[2cc	.
4G	.	.	.	.	.
=35	=35	=35	=35	=35	=35
1F	0r	1a]	2e]	2cc]	1r
.	.	.	2d	4b	.
.	.	.	.	4a	.
2.E	.	2.g	2.e	2cc	2r
.	.	.	.	2b	[2gg
4D	.	4f	4f	.	.
=36	=36	=36	=36	=36	=36
[0C	2r	2.e	1g	0cc	2gg]
.	1c	.	.	.	2gg
.	.	4d	.	.	.
.	.	4c	2r	.	1gg
.	.	4d	.	.	.
.	2c	4e	[2g	.	.
.	.	4f	.	.	.
=37	=37	=37	=37	=37	=37
1C]	1c	1g	2g]	2r	2ee
.	.	.	2e	1cc	2.gg
1r	1A	1c	[1a	.	.
.	.	.	.	.	4ff
.	.	.	.	2cc	[2ff
=38	=38	=38	=38	=38	=38
0r	1c	2r	2a]	1cc	4ff]
.	.	.	.	.	4ee
.	.	2e	2g	.	1ee
.	1d	2f	1f	1a	.
.	.	[2a	.	.	2dd
=39	=39	=39	=39	=39	=39
0r	2.c	2a]	1e	1.cc	1ee
.	.	2g	.	.	.
.	4B	.	.	.	.
.	2A	4f	1r	.	2r
.	.	4e	.	.	.
.	2G	[2e	.	2b	2b
=40	=40	=40	=40	=40	=40
1r	1F	4e]	0r	1a	2cc
.	.	8d	.	.	.
.	.	8c	.	.	.
.	.	2d	.	.	4a
.	.	.	.	.	4b
2r	[1C	2e	.	[1g	4cc
.	.	.	.	.	4dd
[2c	.	[2e	.	.	4ee
.	.	.	.	.	4ff
=41	=41	=41	=41	=41	=41
2c]	0C]	2e]	2r	1g]	2.gg
2c	.	2e	1g	.	.
.	.	.	.	.	4ff
[1c	.	[1e	.	2r	2ee
.	.	.	2g	[2gg	2cc
=42	=42	=42	=42	=42	=42
1c]	2r	2e]	2g	2gg]	1ee
.	1c	2c	2e	2gg	.
1G	.	1d	1g	1gg	2dd
.	2B	.	.	.	[2gg
=43	=43	=43	=43	=43	=43
2r	1c	1e	1g	1ee	2gg]
1c	.	.	.	.	2gg
.	1G	1d	2r	2r	1gg
2B	.	.	[2g	[2gg	.
=44	=44	=44	=44	=44	=44
1c	2.C	2r	2g]	4gg]	1ee
.	.	.	.	4ff	.
.	.	1c	2g	1ee	.
.	4D	.	.	.	.
1G	4E	.	1g	.	2r
.	4F	.	.	.	.
.	[2G	2B	.	[2dd	[2gg
=45	=45	=45	=45	=45	=45
2.C	2G]	2c	1e	2dd]	4gg]
.	.	.	.	.	4ff
.	2C	2.G	.	1cc	1ee
4D	.	.	.	.	.
4E	[1G	.	[1g	.	.
4F	.	4A	.	.	.
[2G	.	4B	.	4b	[2dd
.	.	4c	.	4a	.
=46	=46	=46	=46	=46	=46
2G]	0G]	2d	0g]	2b	2dd]
2C	.	2e	.	2cc	1cc
1G	.	1d	.	1dd	.
.	.	.	.	.	2b
=47	=47	=47	=47	=47	=47
0C	0G	0c	0g	0ee	0cc
==	==	==	==	==	==
*-	*-	*-	*-	*-	*-
!!!CDT: 1525/^1526/-1594/2/2
!!!OCY: Italia
!!!AGN: Mass (Parody)
!!!AST: renaissance, vocal
!!!ASW: Motet 1572 (Palestrina)
!!!PWK: Masses, Book 11
!!!RNB: Cadence finals: C,D
!!!YOR: Le Opere Complete, v. 28, p. 268
!!!YOO: Rome, Italy: Fratelli Scalera
!!!END: 1992//
!!!EED: John Miller
!!!YEC: Copyright 2000, John Miller
!!!YEN: United States of America
!!!YEM: Rights to all derivative electronic formats reserved.
!!!YEM: Refer to licensing agreement for further details.
!!!YEM: This file must be accompanied by the licensing agreement.
!!!YEM: A copy of the licensing agreement may be found at http://www.music-cog.ohio-state.edu/HumdrumDatabases/Palestrina/license.txt
!!!EMD: converted to Humdrum by Bret Aarden
